Obsidian-SemiLight/actions/24s/office-chart-area-percentage.svg

<svg viewBox="0 0 24 24" xmlns="http://www.w3.org/2000/svg"><g fill="#4d4d4d"><path d="m5 4v3.9921875 1.0078125 7 1 1h-1v1h1v1h1v-1h14v-1h-14v-1h.0078125.9921875 2v-.007812l.0078125.007812 1.9999995-2h1.591797l2 2h3.5 1.900391v-1h-1.900391-3.085937l-2-2h-.013672-.992188-.408203-1.005859l-2 2h-1.59375-.9921875-.0078125v-3-1-1-2h.0078125.9921875 1.5878906l1.7070314 1.707031.828125.828125 2 2 .001953-.001953.001953.001953 2.126953-2.125 1.296875 1.296875.828125.828125 1.041016 1.041016.707031-.707031-1.041015-1.041016-.828126-.828125-2-2-.003906.003906-.005859-.003906-2.123047 2.123047-1.294922-1.294922-.828125-.828125-1.9999999-2h-.0019531-2v-.0078125h-1v-.9921875h7v-1h-7v-2zm8 0v1h1v3h1v-4h-1zm4.5 0c-.831 0-1.5.669-1.5 1.5v1c0 .831.669 1.5 1.5 1.5s1.5-.669 1.5-1.5v-1c0-.831-.669-1.5-1.5-1.5zm4 0c-.831 0-1.5.669-1.5 1.5v1c0 .831.669 1.5 1.5 1.5s1.5-.669 1.5-1.5v-1c0-.831-.669-1.5-1.5-1.5zm-4 1c.277 0 .5.223.5.5v1c0 .277-.223.5-.5.5s-.5-.223-.5-.5v-1c0-.277.223-.5.5-.5zm4 0c.277 0 .5.223.5.5v1c0 .277-.223.5-.5.5s-.5-.223-.5-.5v-1c0-.277.223-.5.5-.5z"/><path d="m6.0078125 7v1h2.9921875l4 4v-4-1zm-.0078125 2v2 1 1 3h.0078125 2.5859375l2-2h.40625l2-.007812.007812.007812h.00586l1.992187 1.992188 1.996094.005859.998047-.998047 1.021484-1.021484-.001953-.001954-.599609.59961-1.041016-1.041016-.828125-.828125-1.296875-1.296875-2.126953 2.125-.001953-.001953-.001953.001953-2-2-.828125-.828125-1.7070314-1.707031h-2.5800781zm5 6-2 2h-3v1h14v-1h-5.400391l-2-2z" fill-opacity=".5"/></g></svg>

<svg xmlns="http://www.w3.org/2000/svg" viewBox="0 0 24 24">
  <defs id="defs3051">
    <style type="text/css" id="current-color-scheme">
      .ColorScheme-Text {
        color:#4d4d4d;
      }
      </style>
  </defs>
 <path 
     style="fill:currentColor;fill-opacity:1;stroke:none" 
     d="M 5 4 L 5 7.9921875 L 5 9 L 5 16 L 5 17 L 5 18 L 4 18 L 4 19 L 5 19 L 5 20 L 6 20 L 6 19 L 20 19 L 20 18 L 6 18 L 6 17 L 6.0078125 17 L 7 17 L 9 17 L 9 16.992188 L 9.0078125 17 L 11.007812 15 L 12.599609 15 L 14.599609 17 L 18.099609 17 L 20 17 L 20 16 L 18.099609 16 L 15.013672 16 L 13.013672 14 L 13 14 L 12.007812 14 L 11.599609 14 L 10.59375 14 L 8.59375 16 L 7 16 L 6.0078125 16 L 6 16 L 6 13 L 6 12 L 6 11 L 6 9 L 6.0078125 9 L 7 9 L 8.5878906 9 L 10.294922 10.707031 L 11.123047 11.535156 L 13.123047 13.535156 L 13.125 13.533203 L 13.126953 13.535156 L 15.253906 11.410156 L 16.550781 12.707031 L 17.378906 13.535156 L 18.419922 14.576172 L 19.126953 13.869141 L 18.085938 12.828125 L 17.257812 12 L 15.257812 10 L 15.253906 10.003906 L 15.248047 10 L 13.125 12.123047 L 11.830078 10.828125 L 11.001953 10 L 9.0019531 8 L 9 8 L 7 8 L 7 7.9921875 L 6 7.9921875 L 6 7 L 13 7 L 13 6 L 6 6 L 6 4 L 5 4 z M 13 4 L 13 5 L 14 5 L 14 8 L 15 8 L 15 4 L 14 4 L 13 4 z M 17.5 4 C 16.669 4 16 4.669 16 5.5 L 16 6.5 C 16 7.331 16.669 8 17.5 8 C 18.331 8 19 7.331 19 6.5 L 19 5.5 C 19 4.669 18.331 4 17.5 4 z M 21.5 4 C 20.669 4 20 4.669 20 5.5 L 20 6.5 C 20 7.331 20.669 8 21.5 8 C 22.331 8 23 7.331 23 6.5 L 23 5.5 C 23 4.669 22.331 4 21.5 4 z M 17.5 5 C 17.777 5 18 5.223 18 5.5 L 18 6.5 C 18 6.777 17.777 7 17.5 7 C 17.223 7 17 6.777 17 6.5 L 17 5.5 C 17 5.223 17.223 5 17.5 5 z M 21.5 5 C 21.777 5 22 5.223 22 5.5 L 22 6.5 C 22 6.777 21.777 7 21.5 7 C 21.223 7 21 6.777 21 6.5 L 21 5.5 C 21 5.223 21.223 5 21.5 5 z "
     class="ColorScheme-Text"
     />
 <path 
     style="fill:currentColor;fill-opacity:0.5;stroke:none" 
     d="M 6.0078125 7 L 6.0078125 8 L 9 8 L 13 12 L 13 8 L 13 7 L 6.0078125 7 z M 6 9 L 6 11 L 6 12 L 6 13 L 6 16 L 6.0078125 16 L 8.59375 16 L 10.59375 14 L 11 14 L 13 13.992188 L 13.007812 14 L 13.013672 14 L 15.005859 15.992188 L 17.001953 15.998047 L 18 15 L 19.021484 13.978516 L 19.019531 13.976562 L 18.419922 14.576172 L 17.378906 13.535156 L 16.550781 12.707031 L 15.253906 11.410156 L 13.126953 13.535156 L 13.125 13.533203 L 13.123047 13.535156 L 11.123047 11.535156 L 10.294922 10.707031 L 8.5878906 9 L 6.0078125 9 L 6 9 z M 11 15 L 9 17 L 6 17 L 6 18 L 20 18 L 20 17 L 14.599609 17 L 12.599609 15 L 11 15 z "
     class="ColorScheme-Text"
     />
</svg>
